X:20901
T:My Darling Asleep
R:Jig
B:Tuneworks Tunebook 2 (https://www.tuneworks.co.uk/)
G:Tuneworks
Z:Jon Warbrick <jon.warbrick@googlemail.com>
M:6/8
L:1/8
K:D
|: "D" fdd cAA | "G" BGG A2 G | "D" FAA def | "A" gfg eag |
"D" fdd cAA | "G" BGG A2 G | "D" FAA def |1 "A" gec"D" d2 e :|2 "A" gec"D" d2 |
|: A |"D" FAA BAG | FAA BAG | "D" FAA def | "A" gfg eag |
"D" fdd cAA | "G" BGG A2 G | "D" FAA def | "A" gec"D" d2 :| 